X:491
T: "Die Wahl"
N: Z1171
O: Europa, Mitteleuropa, Deutschland, Niederrhein
R: Liebes - Lied, Abschieds - Lied
M: 6/8
L: 1/16
K: F
AB | c2f2d2c2d2B2 | A2F2z6
FG | A2B2A2G2A2G2 | F4z6
AB | c2F2d2c4AB | c2F2d2c4
C2 | F2E2F2G2F2G2 | A3Bcdc4
c2 | A2B2A2G2A2G2 | F4z6

